packages/icons/src/components/Logo/assets/light/elastic-search.svg

<svg width="20" height="20" viewBox="0 0 20 20" fill="none" xmlns="http://www.w3.org/2000/svg">
<g>
<path d="M15.21 5.59879H1.61741C1.27526 5.59879 0.995325 5.31885 0.995325 4.9767V0.622087C0.995325 0.279939 1.27526 0 1.61741 0H19.3469C19.689 0 19.969 0.279939 19.969 0.622087V0.839818C19.9379 3.45258 17.8228 5.59879 15.21 5.59879Z" fill="#F0BF1A"/>
<path d="M20 19.9068H1.05752V14.308H15.2722C17.8849 14.308 20 16.4231 20 19.0359V19.9068Z" fill="#3EBEB0"/>
<path d="M14.0903 12.7528H0V7.154H14.0903C15.6455 7.154 16.8897 8.39818 16.8897 9.9534C16.8897 11.5086 15.6144 12.7528 14.0903 12.7528Z" fill="#07A5DE"/>
<path d="M9.70455 7.154H0.497624V12.7528H9.70455C9.92229 11.913 10.0467 10.9798 10.0467 9.9534C10.0467 8.92695 9.92229 7.99382 9.70455 7.154Z" fill="#231F20"/>
<path d="M5.94092 1.3375C4.26128 2.33284 2.86158 3.82585 1.99065 5.5988H9.33132C8.58481 3.88806 7.40284 2.45726 5.94092 1.3375Z" fill="#D7A229"/>
<path d="M6.25195 18.7248C7.68275 17.5739 8.83361 16.0498 9.54901 14.308H1.99065C2.92378 16.1742 4.41679 17.7294 6.25195 18.7248Z" fill="#019B8F"/>
</g>
<defs>
<clipPath id="clip0_341_663">
<rect width="20" height="20" fill="white"/>
</clipPath>
</defs>
</svg>

<svg xmlns="http://www.w3.org/2000/svg" width="20" height="20" fill="none" viewBox="0 0 20 20">
    <path fill="#f0bf1a" d="M15.21 5.599H1.617a.624.624 0 0 1-.622-.622V.622c0-.342.28-.622.622-.622h17.73c.342 0 .622.28.622.622V.84c-.031 2.613-2.146 4.759-4.759 4.759"/>
    <path fill="#3ebeb0" d="M20 19.907H1.058v-5.599h14.214A4.726 4.726 0 0 1 20 19.036z"/>
    <path fill="#07a5de" d="M14.09 12.753H0V7.154h14.09c1.556 0 2.8 1.244 2.8 2.8s-1.276 2.799-2.8 2.799"/>
    <path fill="#231f20" d="M9.705 7.154H.498v5.599h9.207c.217-.84.342-1.773.342-2.8s-.125-1.96-.342-2.799"/>
    <path fill="#d7a229" d="M5.94 1.338a10.24 10.24 0 0 0-3.95 4.26h7.341c-.746-1.71-1.928-3.14-3.39-4.26"/>
    <path fill="#019b8f" d="M6.252 18.725a11.1 11.1 0 0 0 3.297-4.417H1.991a10.25 10.25 0 0 0 4.26 4.417"/>
</svg>
